icons/desktop/16/svg/device-mobile-16.svg

<svg width="16" height="16" viewBox="0 0 16 16" fill="none" xmlns="http://www.w3.org/2000/svg">
<path fill-rule="evenodd" clip-rule="evenodd" d="M8 0C9.05382 0 10.2711 0.0589861 11.6152 0.230469L11.6143 0.231445C12.9892 0.406258 14 1.59081 14 2.95801V13.042C14 14.4362 12.9615 15.6005 11.585 15.7744C10.5075 15.911 9.30603 16 8 16C6.94618 16 5.7289 15.941 4.38477 15.7695C3.01026 15.5944 2 14.4089 2 13.042V2.95801C2 1.56377 3.03853 0.399533 4.41504 0.225586C5.49247 0.0889979 6.69397 0 8 0ZM7.125 13.375C6.77982 13.375 6.5 13.6548 6.5 14C6.5 14.3452 6.77982 14.625 7.125 14.625H8.875C9.22018 14.625 9.5 14.3452 9.5 14C9.5 13.6548 9.22018 13.375 8.875 13.375H7.125ZM8 1.5C6.76228 1.5 5.62393 1.5845 4.60352 1.71387C3.97003 1.79392 3.5 2.32625 3.5 2.95801V12H12.5V2.95801C12.5 2.32732 12.0327 1.79512 11.4258 1.71777C10.152 1.55529 8.9981 1.5 8 1.5Z" fill="black"/>
</svg>

<!-- This Source Code Form is subject to the terms of the Mozilla Public
   - License, v. 2.0. If a copy of the MPL was not distributed with this
   - file, You can obtain one at http://mozilla.org/MPL/2.0/. -->
<svg xmlns="http://www.w3.org/2000/svg" width="16" height="16" fill="context-fill" fill-opacity="context-fill-opacity" viewBox="0 0 16 16">
    <path fill-rule="evenodd" d="M8 0c1.054 0 2.271.059 3.615.23v.001C12.988.406 14 1.591 14 2.958v10.084a2.755 2.755 0 0 1-2.415 2.732 28.5 28.5 0 0 1-7.2-.004C3.01 15.594 2 14.409 2 13.042V2.958A2.755 2.755 0 0 1 4.415.226 29 29 0 0 1 8 0m-.875 13.375a.625.625 0 1 0 0 1.25h1.75a.625.625 0 1 0 0-1.25zM8 1.5a27 27 0 0 0-3.396.214A1.255 1.255 0 0 0 3.5 2.958V12h9V2.958c0-.63-.467-1.163-1.074-1.24A27 27 0 0 0 8 1.5" clip-rule="evenodd" />
</svg>
